X:485
T: WENN DER TOPP ABER NUN  A LOCH HAT
N: E1741
O: Europa, Mitteleuropa, Deutschland
R: Scherz -, Spiel - Lied
M: 3/4
L: 1/8
K: D
AA | BAGFGE | D2F2
FF | A2G2GE | B2A2
AA | BAGFGE | D2F2
FD | A4AA | D4

@@@ Tune index: 5169
